X:1
T:Upon the Cross Extended
C:Hans Leo Hassler, 1601; harm. J.S. Bach, 1729
S:Open Hymnal Project; openhymnal.org/Abc/Upon_The_Cross_Extended-Passion_Chorale.abc
M:4/4
L:1/4
Q:1/4=100
K:C
E | A G F E | D2 E B | c c B/A/ B | A3 |
E | A G F E | D2 E B | c c B/A/ B | A3 |
c | B/A/ G A B | c2 c G | A G F F | E3 |
c | B/c/ d c B | A2 B E | F E D G | E3 ||

## Musiquik
&4T.WVUT.cTX.YYHGX.g.T.WVUT.cTX.YYHGX.g.Y.HGVWX.iYV.WVUU.d.Y.HIZYX.gXT.UTSV.d)

#Lyrics
Upon the cross extended, see, world, thy Lord suspended; thy Savior yields his breath; the Prince of Life from heaven himself hath borne the burden and tasted death.  2. Come, see what is elected; Love's utmost gift perfected, he bleeds upon the tree. The Prince of Life in sorrow, who needs not beg or borrow, dies here for thee.  3. Who can approach this sorrow, whose heart doth not here borrow grief from my Savior's woe? And yet this death so bitter brings life that shall not wither to all below.  4. My guilt, Lord, Thou hast taken; let me not be forsaken; Thou for my sins hast bled. O Jesu, my salvation, my hope and consolation, raise Thou my head.  5. Lord, when I come to dying, upon Thy cross relying, may I find shelter there; and, by Thy death now, living, in mercy be forgiving the cross I bear.

#Citations and References

Words: Johann Heermann, 1630. English trans.: Richard Massie, pub. 1864.
Music: 'Herzlich Tut Mich Verlangen' (Passion Chorale) Hans Leo Hassler, 1601; harmonized J.S. Bach, 1729.
Setting: J.S. Bach, St. Matthew Passion, BWV 244, 1729.
copyright: public domain. Heermann (d. 1647); Massie (d. 1887); Hassler (d. 1612); Bach (d. 1750).

openhymnal.org/Abc/Upon_The_Cross_Extended-Passion_Chorale.abc
